icons-mns/notification-group.svg

<svg height="1em" width="auto" viewBox="0 0 105 105" fill="currentColor" xmlns="http://www.w3.org/2000/svg">
<path d="M27.3882 47.4612C26.3793 46.308 25.691 44.9134 25.3912 43.4153H9.08865C8.34281 43.4153 7.62752 43.1212 7.10014 42.5976C6.57275 42.0741 6.27647 41.364 6.27647 40.6236C6.27692 40.1357 6.41838 39.6583 6.68403 39.2479L12.2269 29.8208C12.4847 29.4069 12.6254 28.9318 12.6344 28.4452V18.8158C12.6344 16.6697 13.4932 14.6115 15.0219 13.094C16.5505 11.5764 18.6239 10.7239 20.7857 10.7239C22.9475 10.7239 25.0208 11.5764 26.5495 13.094C28.0782 14.6115 28.937 16.6697 28.937 18.8158V28.4452C28.8951 28.7269 28.8951 29.0132 28.937 29.2949C28.937 29.0116 29.3038 28.7284 29.5075 28.4857C29.9468 27.8743 30.5003 27.3524 31.1378 26.9482C32.1536 25.5756 33.5799 24.5561 35.2134 24.0351V18.8158C35.3185 16.8358 35.0164 14.8552 34.3255 12.9948C33.6345 11.1345 32.5693 9.43321 31.1946 7.99475C29.82 6.5563 28.1647 5.41076 26.3296 4.62794C24.4945 3.84512 22.5181 3.44141 20.5208 3.44141C18.5235 3.44141 16.547 3.84512 14.712 4.62794C12.8769 5.41076 11.2216 6.5563 9.84693 7.99475C8.47227 9.43321 7.40702 11.1345 6.7161 12.9948C6.02518 14.8552 5.72306 16.8358 5.82815 18.8158V27.5146L1.22269 36.0112C0.4353 37.4092 0.0148352 38.9814 0 40.5831C0 43.0189 0.974727 45.355 2.70975 47.0774C4.44478 48.7998 6.79798 49.7674 9.25167 49.7674H30.1189C29.0475 49.2094 28.1148 48.4216 27.3882 47.4612Z" />
<path d="M61.1347 51.0206C60.4153 50.9641 59.7045 50.8284 59.0153 50.616C57.9482 50.2373 56.9238 49.7492 55.9586 49.1595C54.4116 48.1748 53.1811 46.7708 52.4128 45.1135H32.0347C31.2132 45.1135 30.4253 44.7896 29.8444 44.2129C29.2636 43.6362 28.9372 42.8541 28.9372 42.0386C28.9383 41.5127 29.0788 40.9964 29.3448 40.5416L35.4582 30.1435C35.7293 29.676 35.87 29.1453 35.8658 28.606V17.9651C35.7823 16.7267 35.9559 15.4845 36.3759 14.3155C36.7959 13.1465 37.4533 12.0755 38.3073 11.1691C39.1613 10.2626 40.1938 9.53999 41.3407 9.04593C42.4876 8.55187 43.7246 8.29694 44.9748 8.29694C46.225 8.29694 47.462 8.55187 48.6089 9.04593C49.7558 9.53999 50.7883 10.2626 51.6423 11.1691C52.4964 12.0755 53.1537 13.1465 53.5737 14.3155C53.9937 15.4845 54.1673 16.7267 54.0838 17.9651V28.606C54.0796 29.1453 54.2203 29.676 54.4914 30.1435L56.0401 32.7733V32.5306L56.4477 31.5596C56.7404 30.6802 57.1085 29.8274 57.5481 29.0106C58.325 27.7004 59.4173 26.6021 60.7271 25.8143L61.1347 25.6929V17.9651C61.1347 13.6729 59.4171 9.55646 56.3598 6.52139C53.3025 3.48633 49.1559 1.78125 44.8322 1.78125C40.5085 1.78125 36.3619 3.48633 33.3045 6.52139C30.2472 9.55646 28.5296 13.6729 28.5296 17.9651V27.5136L23.2721 36.9407C22.3667 38.4808 21.8876 40.2312 21.8833 42.0144C21.879 43.7976 22.3496 45.5502 23.2475 47.0947C24.1454 48.6391 25.4386 49.9205 26.9961 50.8089C28.5536 51.6973 30.3199 52.1612 32.1162 52.1535H57.8334C59.2419 52.1241 60.6292 51.8073 61.909 51.2229L61.1347 51.0206Z"/>
<path d="M88.9304 43.6967C88.9304 44.5911 88.5753 45.4494 87.9421 46.0856C87.3088 46.7219 86.4485 47.0846 85.5476 47.0953H57.059C56.151 47.0953 55.2802 46.7372 54.6382 46.0998C53.9961 45.4625 53.6354 44.598 53.6354 43.6967C53.6446 43.1154 53.7986 42.5455 54.0838 42.0378L60.7678 30.5877C61.0501 30.0237 61.1767 29.3955 61.1346 28.767V16.9933C61.1346 14.3107 62.2081 11.7379 64.1189 9.84097C66.0297 7.94406 68.6213 6.87838 71.3237 6.87838C74.026 6.87838 76.6176 7.94406 78.5284 9.84097C80.4392 11.7379 81.5127 14.3107 81.5127 16.9933V28.767C81.5116 29.3679 81.6811 29.9568 82.0018 30.4664L88.6451 41.9164C88.9442 42.4184 89.0992 42.9921 89.0934 43.5753M97.0001 43.5753C96.9972 41.61 96.4623 39.6816 95.4514 37.9918L89.2564 27.5128V16.9933C89.0365 12.4134 87.049 8.09325 83.7063 4.92919C80.3635 1.76513 75.922 0 71.3033 0C66.6845 0 62.2431 1.76513 58.9003 4.92919C55.5575 8.09325 53.57 12.4134 53.3501 16.9933V27.5128L47.3182 37.9918C46.3339 39.6924 45.8164 41.6196 45.8174 43.5809C45.8184 45.5422 46.3378 47.4689 47.3238 49.1685C48.3097 50.8681 49.7277 52.2811 51.4361 53.2662C53.1444 54.2514 55.0833 54.7743 57.059 54.7826H85.5883C88.5511 54.7617 91.3878 53.5896 93.4905 51.5174C95.5932 49.4451 96.7945 46.6377 96.8371 43.6967L97.0001 43.5753Z" />
</svg>

<svg xmlns="http://www.w3.org/2000/svg" width="auto" height="1em" fill="currentColor" viewBox="0 0 105 105">
    <path d="M27.388 47.461a8.75 8.75 0 0 1-1.997-4.046H9.09a2.82 2.82 0 0 1-1.989-.817 2.78 2.78 0 0 1-.824-1.974c0-.488.142-.966.408-1.376l5.543-9.427c.258-.414.398-.89.407-1.376v-9.63c0-2.145.86-4.204 2.388-5.721a8.18 8.18 0 0 1 5.764-2.37c2.162 0 4.235.852 5.763 2.37a8.06 8.06 0 0 1 2.388 5.722v9.63a2.9 2.9 0 0 0 0 .849c0-.283.367-.567.57-.81a5.9 5.9 0 0 1 1.63-1.537 8.15 8.15 0 0 1 4.076-2.913v-5.22a14.5 14.5 0 0 0-.888-5.82 14.6 14.6 0 0 0-3.13-5 14.7 14.7 0 0 0-4.865-3.367 14.8 14.8 0 0 0-11.618 0 14.7 14.7 0 0 0-4.865 3.367 14.6 14.6 0 0 0-3.13 5 14.5 14.5 0 0 0-.889 5.82v8.7L1.223 36.01A9.5 9.5 0 0 0 0 40.583a9.15 9.15 0 0 0 2.71 6.494 9.3 9.3 0 0 0 6.542 2.69h20.867a8.1 8.1 0 0 1-2.73-2.306"/>
    <path d="M61.135 51.02a9.8 9.8 0 0 1-2.12-.404 16.4 16.4 0 0 1-3.056-1.456 9.57 9.57 0 0 1-3.546-4.046H32.035c-.822 0-1.61-.324-2.19-.901a3.06 3.06 0 0 1-.908-2.174 3 3 0 0 1 .408-1.497l6.113-10.399c.271-.467.412-.998.408-1.537v-10.64a9 9 0 0 1 .51-3.65 9.05 9.05 0 0 1 1.931-3.147 9.1 9.1 0 0 1 3.034-2.123 9.2 9.2 0 0 1 7.268 0 9.1 9.1 0 0 1 3.033 2.123 9.05 9.05 0 0 1 1.932 3.146 9 9 0 0 1 .51 3.65v10.641c-.004.54.136 1.07.407 1.537l1.55 2.63v-.242l.407-.971c.292-.88.66-1.733 1.1-2.55a9.2 9.2 0 0 1 3.18-3.196l.407-.121v-7.728c0-4.292-1.718-8.409-4.775-11.444a16.36 16.36 0 0 0-11.528-4.74c-4.324 0-8.47 1.705-11.528 4.74a16.12 16.12 0 0 0-4.774 11.444v9.549l-5.258 9.427a10.06 10.06 0 0 0-.024 10.154 10.15 10.15 0 0 0 3.748 3.714 10.25 10.25 0 0 0 5.12 1.345h25.717a10.3 10.3 0 0 0 4.076-.931z"/>
    <path d="M88.93 43.697a3.4 3.4 0 0 1-.988 2.389 3.44 3.44 0 0 1-2.394 1.01H57.059a3.44 3.44 0 0 1-2.42-.996 3.4 3.4 0 0 1-1.004-2.403 3.5 3.5 0 0 1 .449-1.66l6.684-11.45a3.54 3.54 0 0 0 .367-1.82V16.993c0-2.682 1.073-5.255 2.984-7.152a10.23 10.23 0 0 1 7.205-2.963c2.702 0 5.294 1.066 7.204 2.963a10.08 10.08 0 0 1 2.985 7.152v11.774c-.001.6.168 1.19.489 1.7l6.643 11.45c.3.501.454 1.075.448 1.658m7.907 0a10.9 10.9 0 0 0-1.549-5.583l-6.195-10.48V16.994c-.22-4.58-2.207-8.9-5.55-12.064A18.04 18.04 0 0 0 71.303 0c-4.618 0-9.06 1.765-12.403 4.93a17.8 17.8 0 0 0-5.55 12.063v10.52l-6.032 10.479a11.14 11.14 0 0 0 .006 11.177 11.25 11.25 0 0 0 4.112 4.097 11.35 11.35 0 0 0 5.623 1.517h28.53a11.37 11.37 0 0 0 7.901-3.266 11.2 11.2 0 0 0 3.347-7.82z"/>
</svg>
